icons/editor-move-filled.svg

<svg width="25" height="24" viewBox="0 0 25 24" fill="none" xmlns="http://www.w3.org/2000/svg">
<g id="move">
<path id="Icon" d="M6.26353 15.3635L2.90039 12.0004M2.90039 12.0004L6.26353 8.63725M2.90039 12.0004H22.1004M18.7372 15.3635L22.1004 12.0004M22.1004 12.0004L18.7372 8.63725M9.13725 5.76353L12.5004 2.40039M12.5004 2.40039L15.8635 5.76353M12.5004 2.40039L12.5004 21.6004M9.13725 18.2372L12.5004 21.6004M12.5004 21.6004L15.8635 18.2372" stroke="black" stroke-width="2" stroke-linecap="round" stroke-linejoin="round"/>
</g>
</svg>

<svg xmlns="http://www.w3.org/2000/svg" width="25" height="24" fill="none" viewBox="0 0 25 24"><path stroke="currentColor" stroke-linecap="round" stroke-linejoin="round" stroke-width="2" d="M6.264 15.364 2.9 12m0 0 3.364-3.363M2.9 12h19.2m-3.363 3.364L22.1 12m0 0-3.363-3.363m-9.6-2.873L12.5 2.4m0 0 3.364 3.364M12.5 2.4v19.2m-3.363-3.363L12.5 21.6m0 0 3.364-3.363"/></svg>
